img/06.svg

<svg width="160" height="80" viewBox="0 0 160 80" fill="none" xmlns="http://www.w3.org/2000/svg">
<path d="M0.266602 61.4926H2.04751V57.9631C2.04751 57.3345 2.04751 56.5591 2.37006 56.1048C2.69099 55.611 3.26738 55.4504 3.58912 55.4504C5.08951 55.4504 5.08951 57.2159 5.08951 57.8292V61.4926H6.86961V57.4822C6.86961 56.9061 6.86961 55.6642 6.18732 54.8492C5.57213 54.0996 4.59316 53.8172 3.95129 53.8172C2.82519 53.8172 2.20919 54.4345 1.91493 54.7153V54.0714H0.266602V61.4926Z" fill="#3C2829"/>
<path fill-rule="evenodd" clip-rule="evenodd" d="M14.9694 58.578C15.0203 58.3384 15.0761 58.0302 15.0761 57.6832C15.0761 55.8128 13.5886 53.7769 11.2313 53.7769C8.94035 53.7769 7.32031 55.7046 7.32031 57.8026C7.32031 59.9676 9.03493 61.7339 11.2451 61.7339C12.9864 61.7339 14.4051 60.492 14.8344 59.1542H12.9581C12.6242 59.7691 12.0357 60.1023 11.2451 60.1023C9.97267 60.1023 9.27583 59.0598 9.19499 58.578H14.9694ZM9.14164 57.1474C9.47631 55.77 10.5887 55.4093 11.2451 55.4093C12.1295 55.4093 13.0527 55.9572 13.254 57.1474H9.14164Z" fill="#3C2829"/>
<path d="M17.3615 61.4926H18.4577L19.8651 56.6801H19.891L21.2855 61.4926H22.3833L25.1019 54.0714H23.2006L21.8327 58.6046H21.8069L20.5999 54.0714H19.182L17.9629 58.6046H17.9363L16.5838 54.0714H14.6816L17.3615 61.4926Z" fill="#3C2829"/>
<path fill-rule="evenodd" clip-rule="evenodd" d="M28.5498 61.4923H30.1828V60.5966C30.6233 61.092 31.2555 61.7335 32.6888 61.7335C35.4067 61.7335 36.3848 59.2337 36.3848 57.7482C36.3848 55.785 34.9119 53.8169 32.6484 53.8169C31.8174 53.8169 30.9459 54.1259 30.3299 54.7416V51.5987H28.5498V61.4923ZM30.2224 57.6828C30.2224 56.5999 31.0664 55.4501 32.4325 55.4501C33.5586 55.4501 34.6039 56.3175 34.6039 57.7635C34.6039 59.2055 33.6257 60.1027 32.46 60.1027C31.4156 60.1027 30.2224 59.3273 30.2224 57.6828Z" fill="#3C2829"/>
<path fill-rule="evenodd" clip-rule="evenodd" d="M44.701 54.0714H43.0656V55.0099H43.0389C42.9847 54.9017 42.0866 53.8164 40.5749 53.8164C38.5127 53.8164 36.8506 55.4617 36.8506 57.7364C36.8506 60.2088 38.5523 61.7339 40.4682 61.7339C41.4043 61.7339 42.5037 61.2376 43.0656 60.5727V61.4926H44.701V54.0714ZM43.0138 57.7639C43.0138 59.1405 42.0745 60.1023 40.8417 60.1023C39.57 60.1023 38.6315 59.0727 38.6315 57.8163C38.6315 56.7068 39.3817 55.4504 40.8417 55.4504C41.9007 55.4504 43.0138 56.2251 43.0138 57.7639Z" fill="#3C2829"/>
<path d="M47.4284 51.5992H45.6475V61.4928H47.4284V51.5992Z" fill="#3C2829"/>
<path fill-rule="evenodd" clip-rule="evenodd" d="M55.8125 54.0714H54.1787V55.0099H54.1512C54.097 54.9017 53.1989 53.8164 51.6872 53.8164C49.6225 53.8164 47.9629 55.4617 47.9629 57.7364C47.9629 60.2088 49.6646 61.7339 51.5797 61.7339C52.5166 61.7339 53.6144 61.2376 54.1787 60.5727V61.4926H55.8125V54.0714ZM54.1245 57.7639C54.1245 59.1405 53.1876 60.1023 51.9548 60.1023C50.6815 60.1023 49.7446 59.0727 49.7446 57.8163C49.7446 56.7068 50.4948 55.4504 51.9548 55.4504C53.013 55.4504 54.1245 56.2251 54.1245 57.7639Z" fill="#3C2829"/>
<path d="M56.7607 61.4926H58.5408V57.9631C58.5408 57.3345 58.5408 56.5591 58.8634 56.1048C59.1843 55.611 59.7623 55.4504 60.0825 55.4504C61.582 55.4504 61.582 57.2159 61.582 57.8292V61.4926H63.3646V57.4822C63.3646 56.9061 63.3646 55.6642 62.6798 54.8492C62.0638 54.0996 61.0873 53.8172 60.4438 53.8172C59.3177 53.8172 58.7033 54.4345 58.4075 54.7153V54.0714H56.7607V61.4926Z" fill="#3C2829"/>
<path d="M69.6936 59.0729C69.2239 59.8217 68.6362 60.1025 68.0469 60.1025C66.7057 60.1025 65.8092 59.0463 65.8092 57.7762C65.8092 56.2519 66.8812 55.4498 67.9652 55.4498C69.0638 55.4498 69.4802 56.1583 69.6936 56.5319H71.7041C70.9401 54.2451 68.9022 53.8166 67.9652 53.8166C65.9159 53.8166 64.0283 55.4773 64.0283 57.7479C64.0283 60.209 66.0752 61.7333 67.9798 61.7333C69.7211 61.7333 71.0994 60.7303 71.7041 59.0729H69.6936Z" fill="#3C2829"/>
<path fill-rule="evenodd" clip-rule="evenodd" d="M79.6276 58.578C79.6801 58.3384 79.7335 58.0302 79.7335 57.6832C79.7335 55.8128 78.2477 53.7769 75.8904 53.7769C73.5994 53.7769 71.9785 55.7046 71.9785 57.8026C71.9785 59.9676 73.6931 61.7339 75.9033 61.7339C77.6438 61.7339 79.0649 60.492 79.4926 59.1542H77.6179C77.2824 59.7691 76.6947 60.1023 75.9033 60.1023C74.6301 60.1023 73.934 59.0598 73.8556 58.578H79.6276ZM73.8006 57.1474C74.1361 55.77 75.2469 55.4093 75.9033 55.4093C76.7885 55.4093 77.7117 55.9572 77.9122 57.1474H73.8006Z" fill="#3C2829"/>
<path fill-rule="evenodd" clip-rule="evenodd" d="M30.5846 36.895L28.2038 40.9989L15.0261 40.259L16.3454 37.973L30.5846 36.895ZM40.1108 23.8181L41.3048 28.3473L22.6065 27.1208L23.925 24.8356L40.1108 23.8181ZM27.7147 18.2666L38.6597 18.2746L39.4859 21.3716L26.3979 20.5517L27.7147 18.2666ZM26.7528 43.5512L24.8522 46.8127L11.2363 46.8273L12.5548 44.5429L26.7528 43.5512ZM50.6579 34.7518L47.3621 40.4543H50.5011C51.9554 40.4543 54.5617 39.7297 55.3636 37.6623C56.1066 35.7411 54.7412 34.7494 53.7881 34.7494L50.6579 34.7518ZM53.801 29.2971L56.5391 29.2801C58.3612 29.2704 60.2617 28.4385 60.957 26.7504C61.598 25.1842 60.7363 23.8504 59.594 23.8552L56.9457 23.852L53.801 29.2971ZM41.4074 28.3473L44.1721 23.5599L53.5294 22.9604L53.856 22.3794L45.2004 21.775L47.2247 18.2666L63.2763 18.2657C68.2123 18.2657 71.8639 20.0272 70.4443 25.2076C70.0175 26.7771 68.0111 30.7277 62.1267 32.3827C63.3757 32.5312 66.4864 33.907 65.9504 37.4735C64.9981 43.7981 56.7945 46.8087 52.2311 46.8103L33.2806 46.8192L32.3469 43.1598L42.2724 42.4611L42.6095 41.8817L31.8441 41.2273L30.684 36.8893L46.0024 35.9969L46.3354 35.4223L18.8151 33.6891L20.1336 31.4047L49.7566 29.4851L50.0921 28.9097L41.4074 28.3473Z" fill="#3C2829"/>
</svg>

<svg xmlns="http://www.w3.org/2000/svg" width="160" height="80" fill="#3c2829"  xmlns:v="https://vecta.io/nano"><path d="M.267 61.493h1.781v-3.53c0-.629 0-1.404.323-1.858.321-.494.897-.654 1.219-.654 1.5 0 1.5 1.765 1.5 2.379v3.663h1.78v-4.01c0-.576 0-1.818-.682-2.633-.615-.75-1.594-1.032-2.236-1.032-1.126 0-1.742.617-2.036.898v-.644H.267v7.421z"/><path fill-rule="evenodd" d="M14.969 58.578a4.26 4.26 0 0 0 .107-.895c0-1.87-1.488-3.906-3.845-3.906-2.291 0-3.911 1.928-3.911 4.026 0 2.165 1.715 3.931 3.925 3.931a3.86 3.86 0 0 0 3.589-2.58h-1.876c-.334.615-.922.948-1.713.948-1.272 0-1.969-1.042-2.05-1.524h5.774zm-5.828-1.431c.335-1.377 1.447-1.738 2.103-1.738.884 0 1.808.548 2.009 1.738H9.142z"/><path d="M17.362 61.493h1.096l1.407-4.812h.026l1.395 4.813h1.098l2.719-7.421h-1.901l-1.368 4.533h-.026L20.6 54.071h-1.418l-1.219 4.533h-.027l-1.352-4.533h-1.902l2.68 7.421z"/><path d="M28.55 61.492h1.633v-.896c.441.495 1.073 1.137 2.506 1.137 2.718 0 3.696-2.5 3.696-3.985 0-1.963-1.473-3.931-3.736-3.931-.831 0-1.703.309-2.319.925v-3.143h-1.78v9.894zm1.673-3.809c0-1.083.844-2.233 2.21-2.233 1.126 0 2.171.867 2.171 2.313s-.978 2.339-2.144 2.339c-1.044 0-2.238-.775-2.238-2.42zm14.478-3.612h-1.635v.939h-.027c-.054-.108-.952-1.194-2.464-1.194-2.062 0-3.724 1.645-3.724 3.92 0 2.472 1.702 3.997 3.618 3.997.936 0 2.035-.496 2.597-1.161v.92h1.635v-7.421zm-1.687 3.693c0 1.377-.939 2.338-2.172 2.338-1.272 0-2.21-1.03-2.21-2.286 0-1.109.75-2.366 2.21-2.366 1.059 0 2.172.775 2.172 2.313z" fill-rule="evenodd"/><path d="M47.428 51.599h-1.781v9.894h1.781v-9.894z"/><path fill-rule="evenodd" d="M55.813 54.071h-1.634v.939h-.027c-.054-.108-.952-1.194-2.464-1.194-2.065 0-3.724 1.645-3.724 3.92 0 2.472 1.702 3.997 3.617 3.997.937 0 2.035-.496 2.599-1.161v.92h1.634v-7.421zm-1.688 3.693c0 1.377-.937 2.338-2.17 2.338-1.273 0-2.21-1.03-2.21-2.286 0-1.109.75-2.366 2.21-2.366 1.058 0 2.17.775 2.17 2.313z"/><path d="M56.761 61.493h1.78v-3.53c0-.629 0-1.404.323-1.858.321-.494.899-.654 1.219-.654 1.499 0 1.499 1.765 1.499 2.379v3.663h1.783v-4.01c0-.576 0-1.818-.685-2.633-.616-.75-1.593-1.032-2.236-1.032-1.126 0-1.741.617-2.036.898v-.644h-1.647v7.421zm12.933-2.42c-.47.749-1.057 1.03-1.647 1.03-1.341 0-2.238-1.056-2.238-2.326 0-1.524 1.072-2.326 2.156-2.326 1.099 0 1.515.708 1.728 1.082h2.01c-.764-2.287-2.802-2.715-3.739-2.715-2.049 0-3.937 1.661-3.937 3.931 0 2.461 2.047 3.985 3.951 3.985 1.741 0 3.12-1.003 3.724-2.66h-2.01z"/><path d="M79.628 58.578a4.2 4.2 0 0 0 .106-.895c0-1.87-1.486-3.906-3.843-3.906-2.291 0-3.912 1.928-3.912 4.026 0 2.165 1.715 3.931 3.925 3.931a3.86 3.86 0 0 0 3.589-2.58h-1.875c-.336.615-.923.948-1.715.948-1.273 0-1.969-1.042-2.048-1.524h5.772zm-5.827-1.431c.335-1.377 1.446-1.738 2.103-1.738.885 0 1.808.548 2.009 1.738h-4.112zM30.585 36.895l-2.381 4.104-13.178-.74 1.319-2.286 14.239-1.078zm9.526-13.077l1.194 4.529-18.698-1.227 1.319-2.285 16.186-1.017zm-12.396-5.552l10.945.008.826 3.097-13.088-.82 1.317-2.285zm-.962 25.285l-1.901 3.261-13.616.015 1.319-2.284 14.198-.992zm23.905-8.799l-3.296 5.703h3.139c1.454 0 4.061-.725 4.862-2.792.743-1.921-.622-2.913-1.575-2.913l-3.13.002zm3.143-5.455l2.738-.017c1.822-.01 3.723-.842 4.418-2.53.641-1.566-.221-2.9-1.363-2.895l-2.648-.003-3.145 5.445zm-12.394-.95l2.765-4.787 9.357-.599.327-.581-8.656-.604 2.024-3.508 16.052-.001c4.936 0 8.588 1.762 7.168 6.942-.427 1.57-2.433 5.52-8.318 7.175 1.249.148 4.36 1.524 3.824 5.091-.952 6.325-9.156 9.335-13.719 9.337l-18.95.009-.934-3.659 9.926-.699.337-.579-10.765-.654-1.16-4.338L46.003 36l.333-.575-27.52-1.733 1.319-2.284 29.623-1.92.336-.575-8.685-.562z" fill-rule="evenodd"/></svg>
